X:22
T:Old Woman All Skin And Bone
%%score 1 { 2 | 3 }
L:1/8
Q:1/4=130
M:4/4
I:linebreak $
K:G
V:1 treble nm="Violin"
V:2 treble nm="Piano"
V:3 bass 
V:1
D | G2 GG G G2 D | G2 G G4 D | _A4 G3 D | G2 GG G G2 D | G2 G G4 D | _A4 G3 D |$ G2 GG G G2 D | 
w: There|was an old wom- an all|skin and bone *|* * She|went to the church- yard *|all a- lone. *||looked up * and looked *|
[B,G]2 G G4 D | _A4 G3 D | [B,G]2 GG G G2 D | [B,G]2 G G4 D | _A4 G3 D |$ G2 GG G G2 D | 
w: down. * * *|* * She|saw a corpse lie on the|ground. * * *||Fath- er * Fath- er *|
G2 G G4 D | _A4 G3 D | [B,G]2 GG G G2 D | G2 G G4 D | _A4 G3 D |$ G2 GG G G2 D | G2 G G4 D | 
w: so said she *||Shall i look so when I'm|dead * * *|* * The|sex- ton to her * *|made re ply *|
_A4 G3 D | G2 GG G G2 D | G2 G G4 D | _A4 G3 D |] 
w: |yes my dar ling * *|by and by *||
V:2
D | [B,G]2 GG G G2 D | [B,G]2 G G4 D | [C_E_A]4 [G,B,G]3 D | [B,G]2 GG G G2 D | [B,G]2 G G4 D | 
[C_E_A]4 [G,B,G]3 D |$ [B,G]2 GG G G2 D | [B,G]2 G G4 D | [C_E_A]4 [G,B,G]3 D | [B,G]2 GG G G2 D | 
[B,G]2 G G4 D | [C_E_A]4 [G,B,G]3 D |$ [B,G]2 GG G G2 D | [B,G]2 G G4 D | [C_E_A]4 [G,B,G]3 D | 
[B,G]2 GG G G2 D | [B,G]2 G G4 D | [C_E_A]4 [G,B,G]3 D |$ [B,G]2 GG G G2 D | [B,G]2 G G4 D | 
[C_E_A]4 [G,B,G]3 D | [B,G]2 GG G G2 D | [B,G]2 G G4 D | [C_E_A]4 [G,B,G]3 D |] 
V:3
z | [G,,D,G,]8 | [G,,D,G,]8 | [G,,_E,G,]4 [G,,D,G,]3 z | [G,,D,G,]8 | [G,,D,G,]8 | 
[G,,_E,G,]4 [G,,D,G,]3 z |$ [G,,D,G,]8 | [G,,D,G,]8 | [G,,_E,G,]4 [G,,D,G,]3 z | [G,,D,G,]8 | 
[G,,D,G,]8 | [G,,_E,G,]4 [G,,D,G,]3 z |$ [G,,D,G,]8 | [G,,D,G,]8 | [G,,_E,G,]4 [G,,D,G,]3 z | 
[G,,D,G,]8 | [G,,D,G,]8 | [G,,_E,G,]4 [G,,D,G,]3 z |$ [G,,D,G,]8 | [G,,D,G,]8 | 
[G,,_E,G,]4 [G,,D,G,]3 z | [G,,D,G,]8 | [G,,D,G,]8 | [G,,_E,G,]4 [G,,D,G,]3 z |] 



